X:1
T:Title
%%score ( 1 2 ) { 3 | 4 }
L:1/8
Q:1/4=110
M:4/4
K:Ab
V:1 treble nm="Grand Piano, Soprano"
V:2 treble 
V:3 bass nm="Choir Pad, House Springs, Kirkpatrick"
V:4 bass 
V:1
 [CE]2 [CE]2 [CA]2 [CA]2 | [Ec]2 [Ec]2- [Ec][DB] [CA]2 | [CE]2 [DF]2 [FA]2 [Fd]2 | [Fd]2 [Ec]6 | %4
w: By~William~James~Kirkpatrick,~1890 * * *||||
 cd [Ee]2 [Ac]2 [Ac]2 | [GB]2 [FA]2 [FA]2 [FA]2 | [DF]2 [CE]2 [EA]2 [EA]2 | [Ec]2 [EB]6 | %8
w: ||||
 Bc [Ed]2 [Ed]2 [Ec]2 | [Ec]2 [EB]2 [EB]2 [EA]2 | [EA]2 [Fd]2 [Fd]2 [Gd]2 | [Ge]2 [Ec]6 | %12
w: ||||
 cd [Ee]2 [Ec]2 [Ec]2 | [EB]2 [FA]2 [DF]2 [Fd]2 | [DF]2 [CE]2 [Ec]2 [EB]2- | %15
w: |||
 [EB][EA] [EA]4 z [CE] | [CA]>[DB] [Ec]4- [Ec]>[GB] | [Ac]>[Bd] [ce]6 | [Ae]2 [Ed]2 [Ed]2 [Ec]2 | %19
w: ||||
 c-[Ac] [GB]4- [GB][GB] | [Ac]>[Bd] [ce]4- [ce]>[Ac] | [GB]>[_Gc] [Fd]6 | %22
w: |||
 [DF]2 [CE]2 [Ec]2 [EB]2- | [EB][EA] [EA]6- | [EA]2 z2 z4 |] %25
w: |||
V:2
 x8 | x8 | x8 | x8 | E2 z2 z4 | x8 | x8 | x8 | E2 z2 z4 | x8 | x8 | x8 | E2 z2 z4 | x8 | x8 | x8 | %16
 x8 | x8 | x8 | .E2 z2 z4 | x8 | x8 | x8 | x8 | x8 |] %25
V:3
 A,2 A,2 E,2 E,2 | A,2 B,2- B,G, A,2 | A,2 A,2 A,2 A,2 | A,2 z2 z4 | z2[K:treble] C2 E2 E2 | %5
 D2 C2 C2 D2 | A,2 A,2 C2 A,2 | A,2 G,6 | G,A, B,2 B,2 A,2 | A,2[K:treble] D2 D2 C2 | %10
 C2 A,2 D2[K:bass] B,2 | B,2 A,6 | A,B, C2 A,2 A,2 | A,2 A,2 A,2 A,2 | A,2 A,2[K:treble] A,2 D2- | %15
 DC C4 z2 | z2 z[K:bass] A, A,>A, .A,2 | z2 z A, A,>A, A,2 | C2 B,2 B,2 A,2 | C2 E6 | %20
 z2 z E E>E .E2 | z2 z[K:bass] A, A,>A, A,2 | A,2 A,2 A,2[K:treble] C2- | CC C6- | C2 z2 z4 |] %25
V:4
 A,,2 A,,2 A,,2 A,,2 | A,,2 E,2- E,E, A,,2 | A,,2 D,2 D,2 D,E, | F,G, A,6 | A,B, A,2 A,2 E,2 | %5
 E,2 F,2 F,2 D,2 | D,2 E,2 E,2 C,2 | A,,2 E,6 | E,2 E,2 E,2 E,2 | E,2 E,2 E,2 A,2 | %10
 A,2 D,2 D,2 E,2 | E,2 z2 z4 | z2 A,2 z2 C,2 | C,2 D,2 D,2 D,2 | D,2 E,2 E,2 E,2- | %15
 E,[A,,A,] [A,,A,]4 z2 | z2 z A,, A,,>A,, .A,,2 | z8 | A,2 G,2 G,2 z2 | A,2 E,6 | %20
 z2 z A, A,>A, .A,2 | z2 z D, D,>D, D,2 | D,2 E,2 E,2 E,2- | E,[A,,A,] [A,,A,]6- | %24
 [A,,A,]2 z2 z4 |] %25

